!!!COM: Bach, Johann Sebastian
!!!CDT: 1685/3//-1750/7/28/
!!!OTL@@DE: Komm, heiliger Geist, Herre Gott
!!!AGN: 4-Part Chorale
!!!SCT: BH 069
!!!SCT: BWV 226
!!!ONB: Transposed down a minor third from original BWV 226 chorale.
**harm	**root	**kern	**kern	**kern	**kern
!	!	!bass	!tenor	!alto	!soprno
*	*Iorgan	*Iorgan	*Iorgan	*Iorgan	*Iorgan
*	*	*clefF4	*clefF4	*clefG2	*clefG2
*M4/4	*M4/4	*M4/4	*M4/4	*M4/4	*M4/4
*met(c)	*met(c)	*met(c)	*met(c)	*met(c)	*met(c)
*MM60	*MM60	*MM60	*MM60	*MM60	*MM60
*k[f#c#]	*k[f#c#]	*k[f#c#]	*k[f#c#]	*k[f#c#]	*k[f#c#]
*D:	*D:	*D:	*D:	*D:	*D:
I	4GG	4D	4F#	4d	4a
=1	=1	=1	=1	=1	=1
IV	4CC	4GG	8G	4d	4b
.	.	.	8F#	.	.
V	4DD	4AA	4E	4c#	8a
.	.	.	.	.	8g
vi	4EE	4BB	4D	4d	8f#
.	.	.	.	.	8g
Ib	4GG	8FF#	4D	8A	4a
.	.	8GG	.	8B	.
=2	=2	=2	=2	=2	=2
V;	2DD;	2AA;	2A;	2c#;	2e;
I	4GG	8D	4A	4d	4f#
.	.	8C#	.	.	.
viib/V	4CC#	4BB	4D	4d	4g#
=3	=3	=3	=3	=3	=3
V;	2DD;	2AA;	2E;	2c#;	2a;
r	4r	4r	4r	4r	4r
Ib	4GG	4FF#	4D	4d	4a
=4	=4	=4	=4	=4	=4
IV	4CC	4GG	8G	4d	4b
.	.	.	8F#	.	.
V	4DD	4AA	8E	8c#	4a
.	.	.	8D	8B	.
V7d	8DD	8GG	8C#	4A	8e
Ib	8GG	8FF#	8D	.	8f#
ii	4AA	4EE	4GG	8B	4g
.	.	.	.	8c#	.
=5	=5	=5	=5	=5	=5
Ib	4GG	8FF#	4AA	4d	4f#
.	.	8GG	.	.	.
V	4DD	4AA	8A	4c#	4e
.	.	.	8G	.	.
I;	4GG;	4DD;	4F#;	4A;	4d;
I	4GG	4D	4F#	4A	4d
=6	=6	=6	=6	=6	=6
Vb	4DD	4C#	4E	4A	8e
.	.	.	.	.	8f#
IVb	4CC	8BB	8D	4B	4g
.	.	8C#	8E	.	.
I	4GG	4D	4F#	8A	8f#
.	.	.	.	8B	8g
Vb	4DD	8C#	8E	[4c#	[4a
.	.	8BB	8D	.	.
!!linebreak: 4
=7	=7	=7	=7	=7	=7
Vb	4DD	8C#	4E	8c#]	4a]
.	.	8BB	.	8d	.
V	4DD	8AA	4A	8c#	4e
.	.	8GG#	.	8B	.
Ib	4GG	8FF#	4A	8A	8d
.	.	8DD	.	8F#	8c#
V/V	4AA	4EE	8E	4G#	4B
.	.	.	8D	.	.
=8	=8	=8	=8	=8	=8
V;	2DD;	2AA;	2C#;	2E;	2A;
r	4r	4r	4r	4r	4r
V	4DD	8AA	4C#	4E	4A
.	.	8GG	.	.	.
=9	=9	=9	=9	=9	=9
Ib	8GG	8FF#	4D	8A	4d
IV	8CC	8GG	.	8B	.
viib	4FF#	8FF#	4G	4c#	4e
.	.	8EE	.	.	.
I	4GG	4DD	8A	4.d	8f#
.	.	.	8G	.	8g
I	8GG	8D	8F#	.	[4a
vb	8DD	8C	8E	8e	.
=10	=10	=10	=10	=10	=10
V7/ii	4EE	4BB	8D#	4.f#	4a]
.	.	.	8C#y	.	.
ii	4AA	4EE	4BB	.	4g
.	.	.	.	8e	.
V/vi	4BB	4FF#	4AA#	8d	4f#
.	.	.	.	8c#	.
iib	4AA	4GG	4BB	4B	4e
=11	=11	=11	=11	=11	=11
V/vi;	2BB;	2FF#;	2C#;	2A#;	2f#;
r	4r	4r	4r	4r	4r
vi	4EE	4BB	8D	4d	8f#
.	.	.	8E	.	8g
=12	=12	=12	=12	=12	=12
viib/V/V	4GG#	4F#	4F#	8c#	4a
.	.	.	.	8d#	.
V/V	4AA	8E	4G#	4e	4b
.	.	8D	.	.	.
Vb	4DD	8C#	4.A	8e	4a
.	.	8BB	.	8d	.
V	4DD	4AA	.	8c#	4e
.	.	.	8G	8B	.
!!linebreak: 4
=13	=13	=13	=13	=13	=13
I	4GG	8D	8F#	4A	4f#
.	.	8C#	8E	.	.
viib/V	4CC#	4BB	4D	4B	4g#
V;	4DD;	4AA;	4E;	4c#;	4a;
I	4GG	4D	4F#	8d	4a
.	.	.	.	8c#	.
=14	=14	=14	=14	=14	=14
IV	4CC	4GG	4G	8B	4b
.	.	.	.	8c#	.
Ib	4GG	8FF#	4A	4d	4a
.	.	8GG	.	.	.
V	4DD	4AA	4A	4c#	8e
.	.	.	.	.	8f#
IVb	4CC	8BB	8D	4B	4g
.	.	8C#	8E	.	.
=15	=15	=15	=15	=15	=15
I	8GG	8D	8F#	8A	4f#
IV7	8CC	8GG	8D	8B	.
V	4DD	4AA	8A	4c#	4e
.	.	.	8G	.	.
I;	4GG;	4DD;	4F#;	4A;	4d;
IV	4CC	8GG	4G	4B	4d
.	.	8FF#	.	.	.
=16	=16	=16	=16	=16	=16
ii	4AA	4EE	8G	4B	8e
.	.	.	8F#	.	8f#
ii	4AA	4E	4E	8B	4g
.	.	.	.	8c#	.
vi	4EE	4BB	8F#	[2d	8f#
.	.	.	8E	.	8g
Ib	4GG	8FF#	8D	.	[4a
.	.	8GG	8E	.	.
=17	=17	=17	=17	=17	=17
I	4GG	8AA	8F#	4d]	4a]
.	.	8BB	8G#	.	.
Vb	4DD	8C#	2A	4c#	4e
.	.	8AA	.	.	.
Ib	4GG	8F#	.	8d	8d
.	.	8D	.	[8A	8c#
V/V	4AA	4E	8E	8A]	4B
.	.	.	8D	8G#	.
=18	=18	=18	=18	=18	=18
V;	2DD;	2AA;	2C#;	2E;	2A;
r	4r	4r	4r	4r	4r
iii	4BB	4FF#	4C#	8A	4A
.	.	.	.	8G	.
!!linebreak: 4
=19	=19	=19	=19	=19	=19
vi	8EE	4BB	8D	8F#	4d
IVb	8CC	.	8G	8B	.
Vb	4DD	4C#	8F#	8A	4e
.	.	.	8E	8G	.
I	2GG	8D	4.D	4.F#	8f#
.	.	8E	.	.	8g
.	.	8F#	.	.	[4a
.	.	8E	8E	16G	.
.	.	.	.	16A	.
=20	=20	=20	=20	=20	=20
V7b/ii	4EE	8D#	4.F#	4B	4a]
.	.	8BB	.	.	.
ii	4AA	4E	.	4B	4g
.	.	.	8E	.	.
vi	4EE	8BB	8D	4B	4f#
.	.	8AA	8C#	.	.
iib	4AA	8GG	4BB	8B	4e
.	.	8FF#	.	8A	.
=21	=21	=21	=21	=21	=21
ii7b	4AA	8GG	2E	2G	4B
.	.	8EE	.	.	.
V7	4DD	4AA	.	.	4c#
I;	4GG;	4DD;	4D;	4F#;	4d;
V	4DD	4AA	4C#	4A	4e
=22	=22	=22	=22	=22	=22
I	4GG	8DD	2.D	[2A	4f#
.	.	8EE	.	.	.
Ib	4GG	4FF#	.	.	4d
IV	2CC	2GG	.	8A]	2B
.	.	.	.	8F#	.
.	.	.	8D	4G	.
.	.	.	8C#	.	.
=23	=23	=23	=23	=23	=23
I;	4GG;	4D;	4D;	4F#;	4A;
Vb	4DD	4C#	2E	2A	8e
.	.	.	.	.	16f#
.	.	.	.	.	16g
I	4GG	8D	.	.	2f#
.	.	8C#	.	.	.
vi	4EE	8BB	[4D	[4B	.
.	.	8AA	.	.	.
=24	=24	=24	=24	=24	=24
ii7b	4AA	8GG	4D]	4B]	2e
.	.	8EE	.	.	.
V	4DD	4AA	16C#	8A	.
.	.	.	16BB	.	.
.	.	.	8C#	8G	.
I;	4GG;	4DD;	4AA;	4F#;	4d;
====	====	====	====	====	====
*-	*-	*-	*-	*-	*-
!!chor2scor: -l 4 -s 0.6 -o %b.pmx
!!!ONB1: changed line measure 6, beat 2: vi chord to a IVb chord, since 
!!!ONB2: there is no B and the C is not dissonant and does not resolve.
!!!ONB3: Now m.6, b.2 matches the analysis of m.14, b.4.
!!!YEC: Copyright 1994, David Huron
!!!YEC: Changes/Additions 2001 by Craig Stuart Sapp
!!!YEN: United States of America
!!!SMA: 371 Bach Chorales, edited by Ludwig Erk, C.F. Peters
!!!PDT: 1850, 1865
